svgs/thin/circle-microphone-lines.svg

<svg xmlns="http://www.w3.org/2000/svg" viewBox="0 0 512 512"><!-- Font Awesome Pro 6.0.0-alpha2 by @fontawesome - https://fontawesome.com License - https://fontawesome.com/license (Commercial License) --><path d="M256 320C291.297 320 320 291.297 320 256V160C320 124.703 291.297 96 256 96S192 124.703 192 160V256C192 291.297 220.703 320 256 320ZM208 160C208 133.531 229.531 112 256 112S304 133.531 304 160H256C251.578 160 248 163.578 248 168S251.578 176 256 176H304V224H256C251.578 224 248 227.578 248 232S251.578 240 256 240H304V256C304 282.469 282.469 304 256 304S208 282.469 208 256V160ZM360 216C355.578 216 352 219.578 352 224V256C352 308.938 308.938 352 256 352S160 308.938 160 256V224C160 219.578 156.422 216 152 216S144 219.578 144 224V256C144 315.008 190.039 363.008 248 367.191V416C248 420.422 251.578 424 256 424S264 420.422 264 416V367.191C321.961 363.008 368 315.008 368 256V224C368 219.578 364.422 216 360 216ZM256 16C123.451 16 16 123.453 16 256S123.451 496 256 496S496 388.547 496 256S388.549 16 256 16ZM256 480C132.486 480 32 379.516 32 256S132.486 32 256 32S480 132.484 480 256S379.514 480 256 480Z"/></svg>

<svg xmlns="http://www.w3.org/2000/svg" viewBox="0 0 512 512"><!--! Font Awesome Pro 6.3.0 by @fontawesome - https://fontawesome.com License - https://fontawesome.com/license (Commercial License) Copyright 2023 Fonticons, Inc. --><path d="M256 320c35.3 0 64-28.7 64-64V160c0-35.3-28.7-64-64-64S192 124.7 192 160v96C192 291.3 220.7 320 256 320zM208 160c0-26.47 21.53-48 48-48s48 21.53 48 48L256 159.1c-4.422 0-8 3.578-8 8S251.6 176 256 176h48V224L256 223.1c-4.422 0-8 3.578-8 8S251.6 240 256 240h48V256c0 26.47-21.53 48-48 48S208 282.5 208 256V160zM360 216C355.6 216 352 219.6 352 224v32c0 52.94-43.06 96-96 96S160 308.9 160 256V224c0-4.422-3.578-8-8-8S144 219.6 144 224v32c0 59.01 46.04 107 104 111.2V416c0 4.422 3.578 8 8 8s8-3.578 8-8v-48.81C321.1 363 368 315 368 256V224C368 219.6 364.4 216 360 216zM256 0C114.6 0 0 114.6 0 256s114.6 256 256 256s256-114.6 256-256S397.4 0 256 0zM256 496c-132.3 0-240-107.7-240-240S123.7 16 256 16s240 107.7 240 240S388.3 496 256 496z"/></svg>
